img/pages/web-literacy/web-lit-icon_write.svg

<svg id="Layer_1" data-name="Layer 1" xmlns="http://www.w3.org/2000/svg" viewBox="0 0 70 73"><defs><style>.cls-1{fill:#f89c24}</style></defs><title>MLN_Web-Literacy_Icons</title><path class="cls-1" d="M69.49 9.79H40.65v-5.1a4.23 4.23 0 0 0-1.12-2.91A6 6 0 0 0 35 .2a6 6 0 0 0-4.53 1.58 4.22 4.22 0 0 0-1.12 2.9v5.11H.5a.5.5 0 0 0-.5.5v47.79a.5.5 0 0 0 .5.5h2.31v3.16a.5.5 0 0 0 .5.5h26.22l5 10a.5.5 0 0 0 .89 0l5-10h26.25a.5.5 0 0 0 .5-.5v-3.16h2.31a.5.5 0 0 0 .5-.5V10.29a.5.5 0 0 0-.49-.5zM31.2 2.45A5.05 5.05 0 0 1 35 1.2a5.05 5.05 0 0 1 3.79 1.25 3.27 3.27 0 0 1 .87 2.2V6.7h-9.33V4.65a3.27 3.27 0 0 1 .87-2.2zm-.87 5.25h9.32v2.09h-9.32V7.7zm9.32 53.54h-4.16V10.79h4.16v50.45zm-9.32-50.45h4.16v50.45h-4.16V10.79zM1 10.79h28.33v46.79H1V10.79zm2.81 47.79h25.52v2.66H3.81v-2.66zM35 70.94l-1.13-2.25h2.25zm1.63-3.25h-3.26l-2.72-5.45h8.7zm29.56-9.11v2.66H40.65v-2.66h25.52zm2.81-1H40.65V10.79H69v46.79z"/><path class="cls-1" d="M4.64 15.19h2.42a.5.5 0 1 0 0-1H4.64a.5.5 0 0 0 0 1zM46.8 36.55h12.11a.5.5 0 0 0 0-1H46.8a.5.5 0 0 0 0 1zM9.79 15.19h13.54a.5.5 0 0 0 0-1H9.79a.5.5 0 0 0 0 1zM23.33 44.32H4.64a.5.5 0 0 0 0 1h18.7a.5.5 0 0 0-.01-1zM4.64 19.37h18.7a.5.5 0 0 0 0-1H4.64a.5.5 0 1 0 0 1zM18.33 48.9H4.64a.5.5 0 0 0 0 1h13.7a.5.5 0 0 0-.01-1zM65.5 48.9H46.8a.5.5 0 0 0 0 1h18.7a.5.5 0 0 0 0-1zM65.5 44.32H52.33a.5.5 0 1 0 0 1H65.5a.5.5 0 0 0 0-1zM65.5 53.48H46.8a.5.5 0 0 0 0 1h18.7a.5.5 0 0 0 0-1zM22.88 26.93H5.16a1 1 0 0 0-1 1V40.7a1 1 0 0 0 1 1h17.72a1 1 0 0 0 1-1V27.93a1 1 0 0 0-1-1zm0 13.77H5.16V27.93h17.72V40.7zM47.29 32.75H65a1 1 0 0 0 1-1V15.07a1 1 0 0 0-1-1H47.29a1 1 0 0 0-1 1v16.68a1 1 0 0 0 1 1zm0-17.68H65v16.68H47.29V15.07z"/></svg>

<svg id="Layer_1" data-name="Layer 1" xmlns="http://www.w3.org/2000/svg" viewBox="0 0 70 73"><defs><style>.cls-1{fill:#f89c24;}</style></defs><title>MLN_Web-Literacy_Icons</title><path class="cls-1" d="M69.49,9.79H40.65V4.69a4.23,4.23,0,0,0-1.12-2.91A6,6,0,0,0,35,.2a6,6,0,0,0-4.53,1.58,4.22,4.22,0,0,0-1.12,2.9V9.79H0.5a0.5,0.5,0,0,0-.5.5V58.08a0.5,0.5,0,0,0,.5.5H2.81v3.16a0.5,0.5,0,0,0,.5.5H29.53l5,10a0.5,0.5,0,0,0,.89,0l5-10H66.67a0.5,0.5,0,0,0,.5-0.5V58.58h2.31a0.5,0.5,0,0,0,.5-0.5V10.29A0.5,0.5,0,0,0,69.49,9.79ZM31.2,2.45A5.05,5.05,0,0,1,35,1.2a5.05,5.05,0,0,1,3.79,1.25,3.27,3.27,0,0,1,.87,2.2V6.7H30.33V4.65A3.27,3.27,0,0,1,31.2,2.45ZM30.33,7.7h9.32V9.79H30.33V7.7Zm9.32,53.54H35.49V10.79h4.16V61.24ZM30.33,10.79h4.16V61.24H30.33V10.79ZM1,10.79H29.33V57.58H1V10.79ZM3.81,58.58H29.33v2.66H3.81V58.58h0ZM35,70.94l-1.13-2.25h2.25Zm1.63-3.25H33.37l-2.72-5.45h8.7Zm29.56-9.11v2.66H40.65V58.58H66.17Zm2.81-1H40.65V10.79H69V57.58Z"/><path class="cls-1" d="M4.64,15.19H7.06a0.5,0.5,0,1,0,0-1H4.64A0.5,0.5,0,0,0,4.64,15.19Z"/><path class="cls-1" d="M46.8,36.55H58.91a0.5,0.5,0,0,0,0-1H46.8A0.5,0.5,0,0,0,46.8,36.55Z"/><path class="cls-1" d="M9.79,15.19H23.33a0.5,0.5,0,0,0,0-1H9.79A0.5,0.5,0,0,0,9.79,15.19Z"/><path class="cls-1" d="M23.33,44.32H4.64a0.5,0.5,0,0,0,0,1h18.7A0.5,0.5,0,0,0,23.33,44.32Z"/><path class="cls-1" d="M4.64,19.37h18.7a0.5,0.5,0,0,0,0-1H4.64A0.5,0.5,0,1,0,4.64,19.37Z"/><path class="cls-1" d="M18.33,48.9H4.64a0.5,0.5,0,0,0,0,1h13.7A0.5,0.5,0,0,0,18.33,48.9Z"/><path class="cls-1" d="M65.5,48.9H46.8a0.5,0.5,0,0,0,0,1H65.5A0.5,0.5,0,0,0,65.5,48.9Z"/><path class="cls-1" d="M65.5,44.32H52.33a0.5,0.5,0,1,0,0,1H65.5A0.5,0.5,0,0,0,65.5,44.32Z"/><path class="cls-1" d="M65.5,53.48H46.8a0.5,0.5,0,0,0,0,1H65.5A0.5,0.5,0,0,0,65.5,53.48Z"/><path class="cls-1" d="M22.88,26.93H5.16a1,1,0,0,0-1,1V40.7a1,1,0,0,0,1,1H22.88a1,1,0,0,0,1-1V27.93A1,1,0,0,0,22.88,26.93Zm0,13.77H5.16V27.93H22.88V40.7Z"/><path class="cls-1" d="M47.29,32.75H65a1,1,0,0,0,1-1V15.07a1,1,0,0,0-1-1H47.29a1,1,0,0,0-1,1V31.75A1,1,0,0,0,47.29,32.75Zm0-17.68H65V31.75H47.29V15.07Z"/></svg>
